!!!id: EG063
!!!page: 174-176
!!!COM: Anonymous
!!!LYR: Anonymous
!!!PTL@@FR: Chansons Populaires du Canada
!!!OTL@@FR: Par derrièr' chez ma tante ya-t-un arbre planté
!!!PUB: G. E. Desbarats
!!!YEM:
!!!PDT: 1865
!!!SMA:
!!!OMD:
!!!AGN-Laforte: (verse-chorus)
!!!AGN-type:
!!!AGN-rime:
**kern	**text	**text	**text	**text	**text	**text	**text	**text	**text	**text
*clefG2	*	*	*	*	*	*	*	*	*	*
*k[]	*	*	*	*	*	*	*	*	*	*
*d:	*	*	*	*	*	*	*	*	*	*
*M3/8	*	*	*	*	*	*	*	*	*	*
*	*v:1	*v:2	*v:3	*v:4	*v:5	*v:6	*v:7	*v:8	*v:9	*v:10
*	*pline:1Ha	*pline:2Har	*pline:3Har	*pline:4Har	*pline:5Har	*pline:6Har	*pline:7Har	*pline:8Har	*pline:9Har	*pline:10Har
=1	=1	=1	=1	=1	=1	=1	=1	=1	=1	=1
8d	Par	Dans	Ce	Un'	L'au-	Le	Où	Nous	Le	A
8f	der-	la	sont	leur	-tre	roi,	vont-	ne	roi	cha-
8a	-rièr'	plus	trois	porte	leur	par	ell's,	somm's	prit	-que
=2	=2	=2	=2	=2	=2	=2	=2	=2	=2	=2
8aq	.	.	.	.	.	.	.	.	.	.
4f	chez	hau-	de-	du	porte	la	ces	point	la	tour
8d	ma	-te	-moi-	sei-	à	fe-	trois	des	plus	de
=3	=3	=3	=3	=3	=3	=3	=3	=3	=3	=3
4e	tant'	branche	-selles	-gle,	boire	-nêtre,	dames?	dames,	jeune,	danse
*	*pline:1Hb	*pline:2Hbr	*pline:3Hbr	*pline:4Hbr	*pline:5Hbr	*pline:6Hbr	*pline:7Hbr	*pline:8Hbr	*pline:9Hbr	*pline:10Hbr
8f	Ya-	Trois	Qui	L'au-	Dans	Les	Où	Somm's	Dans	Il
=4	=4	=4	=4	=4	=4	=4	=4	=4	=4	=4
4g	t-un	pi-	leur	-tre,	un	re-	vont-	fill's	la	vou-
!LO:TX:a:t=2	!	!	!	!	!	!	!	!	!	!
.	.	.	.	.	.	.	.	.	.	.
4a	ar-	-geons	port'nt	du	bas-	-gar-	ell's	à	dans'	-lait
!!LO:PB:g=original
=5	=5	=5	=5	=5	=5	=5	=5	=5	=5	=5
8aq	.	.	.	.	.	.	.	.	.	.
4f	-bre	sont	à	bled	-sin	-dait	s'pro-	ma-	l'a	l'em-
8d	plan-	bran-	man-	pi-	do-	pas-	-me-	-ri-	me-	-bras-
=6	=6	=6	=6	=6	=6	=6	=6	=6	=6	=6
4e	-té;	-chés;	-ger;	-lé;	-ré.	-ser:	-ner?	-er.	-née;	-ser:
16r	.	.	.	.	.	.	.	.	.	.
*	*pline:2Ha	*pline:3Ha	*pline:4Ha	*pline:5Ha	*pline:6Ha	*pline:7Ha	*pline:8Ha	*pline:9Ha	*pline:10Ha	*pline:10Ha
16e	Dans	Ce	Un'	L'au-	Le	Où	Nous	Le	A	Al-
=7	=7	=7	=7	=7	=7	=7	=7	=7	=7	=7
4e	la	sont	leur	-tre	roi,	vont-	ne	roi	cha-	-lez,
!LO:TX:a:t=2	!	!	!	!	!	!	!	!	!	!
.	.	.	.	.	.	.	.	.	.	.
4a	plus	trois	porte	leur	par	ell's,	somm's	prit	-que	al-
=8	=8	=8	=8	=8	=8	=8	=8	=8	=8	=8
8aq	.	.	.	.	.	.	.	.	.	.
4g	hau-	de-	du	porte	la	ces	point	la	tour	-lez,
8e	-te	-moi-	sei-	à	fe-	trois	des	plus	de	beau
=9	=9	=9	=9	=9	=9	=9	=9	=9	=9	=9
[4c	branch'	-selles	gle,	boire	-nêtre,	dames?	dames,	jeune,	danse	prince.
16c]	.	.	.	.	.	.	.	.	.	.
*	*pline:2Hb	*pline:3Hb	*pline:4Hb	*pline:5Hb	*pline:6Hb	*pline:7Hb	*pline:8Hb	*pline:9Hb	*pline:10Hb	*pline:10Hb
16d	Trois	Qui	L'au-	Dans	Les	Où	Somm's	Dans	Il	Al-
!!LO:PB:g=original
=10	=10	=10	=10	=10	=10	=10	=10	=10	=10	=10
4e	pi-	leur	-tre,	un	re-	vont-	fill's	la	vou-	-lez
!LO:TX:a:t=2	!	!	!	!	!	!	!	!	!	!
.	.	.	.	.	.	.	.	.	.	.
4g	-geons	port'nt	du	bas-	-gar-	ell's	à	dans'	-lait	plus
=11	=11	=11	=11	=11	=11	=11	=11	=11	=11	=11
8gq	.	.	.	.	.	.	.	.	.	.
4e	sont	à	bled	-sin	-dait	s'pro-	ma-	l'a	l'em-	loin
8f#	bran-	man-	pi-	do-	pas-	-me-	-ri-	me-	-bras-	cher-
=12	=12	=12	=12	=12	=12	=12	=12	=12	=12	=12
4d	-chés.	-ger.	-lé.	-ré.	-ser.	-ner?	-er.	-née.	-ser.	-cher.
8r	.	.	.	.	.	.	.	.	.	.
*>Refrain	*>Refrain	*>Refrain	*>Refrain	*>Refrain	*>Refrain	*>Refrain	*>Refrain	*>Refrain	*>Refrain	*>Refrain
*	*refrain	*	*	*	*	*	*	*	*	*
*	*italic	*	*	*	*	*	*	*	*	*
*	*pline:R1Ha	*	*	*	*	*	*	*	*	*
=13	=13	=13	=13	=13	=13	=13	=13	=13	=13	=13
4d	Vi-	.	.	.	.	.	.	.	.	.
8f	-ve	.	.	.	.	.	.	.	.	.
=14	=14	=14	=14	=14	=14	=14	=14	=14	=14	=14
8aL	le	.	.	.	.	.	.	.	.	.
8bJ	.	.	.	.	.	.	.	.	.	.
8a	ro-	.	.	.	.	.	.	.	.	.
=15	=15	=15	=15	=15	=15	=15	=15	=15	=15	=15
8bq	.	.	.	.	.	.	.	.	.	.
4a	-sier	.	.	.	.	.	.	.	.	.
!!LO:PB:g=original
*	*pline:R1Hb	*	*	*	*	*	*	*	*	*
=16	=16	=16	=16	=16	=16	=16	=16	=16	=16	=16
8g	Du	.	.	.	.	.	.	.	.	.
8a	jo-	.	.	.	.	.	.	.	.	.
8f	-li	.	.	.	.	.	.	.	.	.
=17	=17	=17	=17	=17	=17	=17	=17	=17	=17	=17
8fq	.	.	.	.	.	.	.	.	.	.
4e	mois	.	.	.	.	.	.	.	.	.
8c	de	.	.	.	.	.	.	.	.	.
=18	=18	=18	=18	=18	=18	=18	=18	=18	=18	=18
4d	mai.	.	.	.	.	.	.	.	.	.
*	*Xitalic	*	*	*	*	*	*	*	*	*
*	*Xrefrain	*	*	*	*	*	*	*	*	*
8r	.	.	.	.	.	.	.	.	.	.
==	==	==	==	==	==	==	==	==	==	==
*-	*-	*-	*-	*-	*-	*-	*-	*-	*-	*-
!!!RNB: Two-note tuplets encoded a little strangely, temporary solution
!!!RNB: m.15 is incomplete in original, preserved here
!!!EED: Samuel Boone
